src/telerik-icons/solid/file-txt.svg

<?xml version="1.0" encoding="utf-8"?>
<svg xmlns="http://www.w3.org/2000/svg" width="512" height="512" viewBox="0 0 512 512">
  <path d="M352 32H96c-17.7 0-32 14.3-32 32v384c0 17.7 14.3 32 32 32h320c17.7 0 32-14.3 32-32V128l-96-96zm64 416H96V64h224v96h96v288zm-32-96v32H128v-32h256zM256 160v32H128v-32m256 64v32H128v-32h256zm-256 96v-32h224v32H128z"/>
</svg>

<?xml version="1.0" encoding="utf-8"?>
<!-- Generator: Adobe Illustrator 19.2.1, SVG Export Plug-In . SVG Version: 6.00 Build 0)  -->
<svg xmlns="http://www.w3.org/2000/svg" width="512" height="512" viewBox="0 0 512 512">
<path d="M352,32H96c-17.7,0-32,14.3-32,32v384c0,17.7,14.3,32,32,32h320c17.7,0,32-14.3,32-32V128L352,32z M416,448H96V64h224v96h96
	V448z M384,352v32l-256,0v-32L384,352z M256,160v32l0,0v0H128v-32 M384,224v32H128v-32H384z M128,320v-32l224,0v32L128,320z" />
</svg>
